app/assets/images/heroicon/mini/arrow-path.svg

<svg width="20" height="20" viewBox="0 0 20 20" fill="none" xmlns="http://www.w3.org/2000/svg">
<path fill-rule="evenodd" clip-rule="evenodd" d="M10 4.5C8.78496 4.5 7.58293 4.55484 6.39622 4.66214C6.07513 4.69118 5.81975 4.93931 5.78148 5.25934C5.65739 6.29702 5.57351 7.34718 5.53147 8.40824L7.21961 6.71973C7.51247 6.4268 7.98735 6.42675 8.28027 6.71961C8.5732 7.01247 8.57325 7.48735 8.28039 7.78027L5.28114 10.7802C4.98829 11.0731 4.51343 11.0732 4.2205 10.7803L1.21975 7.78041C0.926811 7.48755 0.926743 7.01268 1.21959 6.71975C1.51245 6.42681 1.98732 6.42674 2.28025 6.71959L4.02814 8.46698C4.07009 7.32601 4.15868 6.19681 4.29209 5.08123C4.41448 4.05775 5.23464 3.26106 6.26114 3.16824C7.4927 3.05688 8.7398 3 10 3C11.2602 3 12.5073 3.05688 13.7388 3.16824C14.7653 3.26105 15.5855 4.05775 15.7079 5.08123C15.7717 5.61464 15.8252 6.15117 15.8683 6.69061C15.9013 7.10351 15.5933 7.46497 15.1804 7.49796C14.7675 7.53095 14.4061 7.22297 14.3731 6.81007C14.3316 6.29024 14.28 5.77326 14.2185 5.25934C14.1802 4.93931 13.9249 4.69118 13.6038 4.66214C12.4171 4.55484 11.215 4.5 10 4.5ZM14.7189 9.22C15.0117 8.9271 15.4866 8.92704 15.7795 9.21987L18.7802 12.2196C19.0732 12.5124 19.0733 12.9873 18.7804 13.2802C18.4876 13.5732 18.0127 13.5733 17.7198 13.2804L15.9719 11.5331C15.9299 12.6741 15.8413 13.8032 15.7079 14.9188C15.5855 15.9422 14.7653 16.7389 13.7389 16.8318C12.5073 16.9431 11.2602 17 10 17C8.7398 17 7.4927 16.9431 6.26114 16.8318C5.23464 16.7389 4.41448 15.9423 4.29209 14.9188C4.22825 14.3849 4.17468 13.848 4.13156 13.3081C4.09859 12.8952 4.40657 12.5338 4.81947 12.5008C5.23237 12.4678 5.59382 12.7758 5.6268 13.1887C5.66835 13.709 5.71997 14.2263 5.78148 14.7407C5.81975 15.0607 6.07513 15.3088 6.39622 15.3379C7.58293 15.4452 8.78496 15.5 10 15.5C11.215 15.5 12.4171 15.4452 13.6038 15.3379C13.9249 15.3088 14.1802 15.0607 14.2185 14.7407C14.3426 13.703 14.4265 12.6529 14.4685 11.5919L12.7804 13.2803C12.4875 13.5732 12.0126 13.5732 11.7197 13.2804C11.4268 12.9875 11.4268 12.5126 11.7196 12.2197L14.7189 9.22Z" fill="#0F172A"/>
</svg>

<svg xmlns="http://www.w3.org/2000/svg" viewBox="0 0 20 20" fill="currentColor" aria-hidden="true">
  <path fill-rule="evenodd" d="M10 4.5c-1.215 0-2.417.055-3.604.162a.68.68 0 00-.615.597 39.78 39.78 0 00-.25 3.15l1.689-1.69A.75.75 0 118.28 7.78l-2.999 3a.75.75 0 01-1.06 0l-3.001-3a.75.75 0 011.06-1.06l1.748 1.747c.042-1.141.13-2.27.264-3.386a2.18 2.18 0 011.97-1.913 41.51 41.51 0 017.477 0 2.18 2.18 0 011.969 1.913c.064.534.117 1.07.16 1.61a.75.75 0 01-1.495.12 39.518 39.518 0 00-.154-1.552.68.68 0 00-.615-.597A40.013 40.013 0 0010 4.5zm4.719 4.72a.75.75 0 011.06 0l3.001 3a.75.75 0 11-1.06 1.06l-1.748-1.747a41.309 41.309 0 01-.264 3.386 2.18 2.18 0 01-1.97 1.913 41.534 41.534 0 01-7.477 0 2.18 2.18 0 01-1.969-1.913 41.176 41.176 0 01-.16-1.61.75.75 0 011.495-.12c.041.52.093 1.037.154 1.552a.68.68 0 00.615.597 40.012 40.012 0 007.208 0 .68.68 0 00.615-.597c.124-1.038.208-2.088.25-3.15l-1.689 1.69a.75.75 0 01-1.06-1.061l2.999-3z" clip-rule="evenodd"/>
</svg>
